src/assets/image-collapse.svg

<svg fill="none" height="20" viewBox="0 0 20 20" width="20" xmlns="http://www.w3.org/2000/svg"><path clip-rule="evenodd" d="m14.5607 6.5 3.2196-3.21967c.2929-.29289.2929-.76777 0-1.06066s-.7677-.29289-1.0606 0l-3.2197 3.21967v-2.68934c0-.41421-.3358-.75-.75-.75s-.75.33579-.75.75v4.5.75h.75 4.5c.4142 0 .75-.33579.75-.75s-.3358-.75-.75-.75zm-12.34103 10.2197c-.29289.2929-.29289.7677 0 1.0606s.76777.2929 1.06066 0l3.21967-3.2196v2.6893c0 .4142.33579.75.75.75s.75-.3358.75-.75v-4.5-.75h-.75-4.5c-.41421 0-.75.3358-.75.75s.33579.75.75.75h2.68934z" fill="#343440" fill-rule="evenodd"/></svg>

<svg width="20" height="20" viewBox="0 0 20 20" fill="none" xmlns="http://www.w3.org/2000/svg">
<path fill-rule="evenodd" clip-rule="evenodd" d="M14.5607 6.5L17.7803 3.28033C18.0732 2.98744 18.0732 2.51256 17.7803 2.21967C17.4874 1.92678 17.0126 1.92678 16.7197 2.21967L13.5 5.43934V2.75C13.5 2.33579 13.1642 2 12.75 2C12.3358 2 12 2.33579 12 2.75V7.25V8H12.75H17.25C17.6642 8 18 7.66421 18 7.25C18 6.83579 17.6642 6.5 17.25 6.5H14.5607ZM2.21967 16.7197C1.92678 17.0126 1.92678 17.4874 2.21967 17.7803C2.51256 18.0732 2.98744 18.0732 3.28033 17.7803L6.5 14.5607L6.5 17.25C6.5 17.6642 6.83579 18 7.25 18C7.66421 18 8 17.6642 8 17.25L8 12.75L8 12H7.25L2.75 12C2.33579 12 2 12.3358 2 12.75C2 13.1642 2.33579 13.5 2.75 13.5H5.43934L2.21967 16.7197Z" fill="#343440"/>
</svg>
